!!!!SEGMENT: pl-sa--273-a-vii-33_habermann-jan-piotr--o-felix-et-beata-dies.krn
!!!id: 17xx:291
!!!COM: Habermann, Jan Piotr
!!!COM-rism: pe30017777
!!!CDT: <1738->1762
!!!CNT:
!!!OTL: O felix et beata dies
!!!PDT:
!!!SMS-siglum: PL-SA
!!!SMS-shelfmark: 273/A VII 33
!!!NIFC-rismID: 1001029966
!!!URL-scan: http://bc.bdsandomierz.pl/dlibra/publication/1756/edition/1724/content
!!!ONB-nifc:
!!!SMS-variant: Canto Solo PL-SA 273/A VII 33:3-4
!!!SMS-altvar: Canto Solo PL-SA 273/A VII 33:1-2
**kern	**fb	**dynam	**kern	**dynam	**kern	**dynam	**kern	**text
*part5	*	*part5	*part4	*part4	*part3	*part3	*part2	*part2
*group	*	*group	*group1	*group1	*group1	*group1	*group	*group
*staff4	*	*	*staff3	*	*staff2	*	*staff1	*staff1
*I"Organo.	*	*	*I"Violino Secundo	*	*I"Violino Primo.	*	*I"Canto Solo.	*
*I'org	*	*	*I'vl 2	*	*I'vl 1	*	*I'S 2	*
*clefF4	*	*	*clefG2	*	*clefG2	*	*clefC1	*
*k[f#]	*	*	*k[f#]	*	*k[f#]	*	*k[f#]	*
*M4/4	*	*	*M4/4	*	*M4/4	*	*M4/4	*
*met(c)	*	*	*met(c)	*	*met(c)	*	*met(c)	*
=1	=1	=1	=1	=1	=1	=1	=1	=1
*	*above	*	*	*	*	*	*	*
!	!	!	!	!	!	!LO:DY:t=Fortè	!	!
!	!	!	!	!LO:DY:a:t=Fortè	!	!LO:DY:a	!LO:TX:a:t=15	!
!LO:TX:b:t=O! Filix	!	!	!LO:TX:b:i:t=O Felix	!	!LO:TX:b:i:t=O Felix	!	!	!
4GG	.	.	4G	f	4dd	f	00r	.
8BBL	X 6	.	(<16dLL	.	8gL	.	.	.
.	.	.	16BJ)	.	.	.	.	.
!	!	!	!LO:TX:b:t=|:problem	!	!	!	!	!
8CJ	.	.	8eJ	.	8aJ	.	.	.
!	!	!	!LO:TX:b:t=|:problem	!	!	!	!	!
8DL	.	.	8AL	.	8f#L	.	.	.
!	!	!	!LO:TX:b:t=|:problem	!	!	!	!	!
8GGJ	.	.	8BJ	.	8gJ	.	.	.
4r	.	.	4r	.	8r	.	.	.
.	.	.	.	.	8dd	.	.	.
=2	=2	=2	=2	=2	=2	=2	=2	=2
2r	.	.	4b	.	4gg	.	.	.
.	.	.	16ddLL	.	16bbLL	.	.	.
.	.	.	16cc	.	16aa	.	.	.
.	.	.	16b	.	16gg	.	.	.
.	.	.	16aJJ	.	16ff#JJ	.	.	.
8GL	.	.	4b	.	8ggL	.	.	.
8G	.	.	.	.	8dd	.	.	.
8G	.	.	4r	.	8b	.	.	.
8GJ	.	.	.	.	8gJ	.	.	.
=3	=3	=3	=3	=3	=3	=3	=3	=3
4C	5 3	.	4g	.	16eeLL	.	.	.
.	.	.	.	.	16dd	.	.	.
.	.	.	.	.	16cc	.	.	.
.	.	.	.	.	16bJJ	.	.	.
8r	.	.	16r	.	8ccL	.	.	.
.	.	.	16gLL	.	.	.	.	.
8C	.	.	16cc	.	8ccJ	.	.	.
.	6 3	.	16eeJJ	.	.	.	.	.
4BB	.	.	4dd	.	16ddLL	.	.	.
.	.	.	.	.	16cc	.	.	.
.	.	.	.	.	16b	.	.	.
.	.	.	.	.	16aJJ	.	.	.
8r	.	.	16r	.	8bL	.	.	.
.	.	.	16gLL	.	.	.	.	.
8GG	.	.	16b	.	8bJ	.	.	.
.	.	.	16ddJJ	.	.	.	.	.
=4	=4	=4	=4	=4	=4	=4	=4	=4
4D	X 7	.	16ff#LL	.	4d	.	.	.
.	.	.	16ggJ	.	.	.	.	.
.	.	.	8aaJ	.	.	.	.	.
.	.	.	.	.	(<16qqa/LL	.	.	.
.	.	.	.	.	16qqb/JJ)	.	.	.
8r	.	.	8r	.	8ccL	.	.	.
8GG	.	.	8gg	.	8bJ	.	.	.
!	!	!	!LO:SIC:custos gg:v	!	!	!	!	!
!	!	!	!LO:LB:g=original	!	!	!	!	!
.	.	.	8qqgg/	.	.	.	.	.
4D	.	.	4ff#	.	16aLL	.	.	.
.	.	.	.	.	16f#J	.	.	.
.	.	.	.	.	8dJ	.	.	.
4r	.	.	4r	.	4r	.	.	.
!	!	!	!	!	!LO:LB:g=original	!	!	!
=5	=5	=5	=5	=5	=5	=5	=5	=5
!LO:TX:a:t=2	!	!	!	!LO:DY:a:t=piano	!	!LO:DY:a:t=piano	!	!
0r	.	.	8GL	p	8GL	p	00r	.
.	.	.	8A	.	8A	.	.	.
.	.	.	8B	.	8B	.	.	.
.	.	.	8cJ	.	8cJ	.	.	.
.	.	.	8dL	.	8dL	.	.	.
.	.	.	8eJ	.	8eJ	.	.	.
.	.	.	8f#L	.	8f#L	.	.	.
.	.	.	16gL	.	16gL	.	.	.
.	.	.	16aJJ	.	16aJJ	.	.	.
=6	=6	=6	=6	=6	=6	=6	=6	=6
.	.	.	8gL	.	8gL	.	.	.
.	.	.	8a	.	8a	.	.	.
.	.	.	8b	.	8b	.	.	.
.	.	.	8ccJ	.	8ccJ	.	.	.
.	.	.	8ddL	.	8ddL	.	.	.
.	.	.	8aJ	.	8aJ	.	.	.
.	.	.	4d	.	4d	.	.	.
=7	=7	=7	=7	=7	=7	=7	=7	=7
4r	.	.	8f#L	.	8aL	.	.	.
.	.	.	8eJ	.	8gJ	.	.	.
16r	.	.	4d	.	4f#	.	.	.
16AALL	.	.	.	.	.	.	.	.
16BB	.	.	.	.	.	.	.	.
16C#XJJ	X 6	.	.	.	.	.	.	.
4D	.	.	8f#L	.	8aL	.	.	.
.	.	.	8eJ	.	8gJ	.	.	.
4r	.	.	4d	.	4f#	.	.	.
!LO:LB:g=original	!	!	!	!	!	!	!	!
=8	=8	=8	=8	=8	=8	=8	=8	=8
4G	.	.	2r	.	2r	.	.	.
8r	.	.	.	.	.	.	.	.
8G#	5 3	.	.	.	.	.	.	.
4A	X #	.	8cc#X	.	8ee	.	.	.
.	.	.	8r	.	8r	.	.	.
8F#L	X 6	.	8dd	.	8ff#	.	.	.
8DJ	.	.	8r	.	8r	.	.	.
!	!	!	!LO:LB:g=original	!	!	!	!	!
=9	=9	=9	=9	=9	=9	=9	=9	=9
8r	.	.	8dd	.	8ff#	.	00r	.
8DL	.	.	8r	.	8r	.	.	.
8C#X	X 6	.	8ee	.	8gg	.	.	.
8AAJ	.	.	8r	.	8r	.	.	.
4r	.	.	2r	.	2r	.	.	.
8r	.	.	.	.	.	.	.	.
16F#LL	X 6	.	.	.	.	.	.	.
16EJJ	.	.	.	.	.	.	.	.
!	!	!	!	!	!LO:LB:g=original	!	!	!
=10	=10	=10	=10	=10	=10	=10	=10	=10
!	!	!	!	!LO:DY:a:t=fortè	!	!LO:DY:a:t=fortè	!	!
8D	.	.	8r	f	8r	f	.	.
!LO:TX:a:t=|:problem	!	!	!LO:TX:b:t=|:problem	!	!LO:TX:b:t=|:problem	!	!	!
8BL	.	.	8bL	.	8bL	.	.	.
!LO:TX:a:t=|:problem	!	!	!LO:TX:b:t=|:problem	!	!LO:TX:b:t=|:problem	!	!	!
8G	.	.	8g	.	8g	.	.	.
!LO:TX:a:t=|:problem	!	!	!LO:TX:b:t=|:problem	!	!LO:TX:b:t=|:problem	!	!	!
8AJ	.	.	8aJ	.	8aJ	.	.	.
4D	.	.	4d	.	4d	.	.	.
4r	.	.	4r	.	8r	.	.	.
.	.	.	.	.	8aa	.	.	.
=11	=11	=11	=11	=11	=11	=11	=11	=11
4D	.	.	4d	.	4d	.	.	.
4r	.	.	4r	.	8r	.	.	.
.	.	.	.	.	8aa	.	.	.
8r	.	.	4b	.	8r	.	.	.
8G	.	.	.	.	8ggL	.	.	.
8AL	X #	.	8r	.	8gg	.	.	.
16AL	.	.	8e	.	8cc#XJ	.	.	.
16GJJ	.	.	.	.	.	.	.	.
=12	=12	=12	=12	=12	=12	=12	=12	=12
8F#L	X 6	.	4f#	.	4dd	.	.	.
8DJ	.	.	.	.	.	.	.	.
8r	.	.	4r	.	4r	.	.	.
8D	X 7	.	.	.	.	.	.	.
4G	.	.	8r	.	8r	.	.	.
!	!	!	!	!	!LO:TX:t=P:problem:mixed beam	!	!	!
.	.	.	16GLL	.	8gg\L	.	.	.
.	.	.	16AJJ	.	.	.	.	.
4r	.	.	8BL	.	8gg\	.	.	.
.	.	.	8cJ	.	8g/J	.	.	.
!LO:LB:g=original	!	!	!	!	!	!	!	!
=13	=13	=13	=13	=13	=13	=13	=13	=13
8r	X 5	.	4d	.	4f#	.	0r	.
8DL	.	.	.	.	.	.	.	.
8D	.	.	4r	.	4r	.	.	.
8DJ	.	.	.	.	.	.	.	.
.	X 7	.	.	.	.	.	.	.
4D	.	.	8r	.	8r	.	.	.
.	.	.	8dL	.	16dLL	.	.	.
.	.	.	.	.	16eJJ	.	.	.
4r	.	.	8d	.	16f#LL	.	.	.
.	.	.	.	.	16g	.	.	.
.	.	.	8dJ	.	16a	.	.	.
.	.	.	.	.	16bJJ	.	.	.
!	!	!	!LO:LB:g=original	!	!	!	!	!
=14	=14	=14	=14	=14	=14	=14	=14	=14
!	!	!	!LO:TX:b:t=|:problem	!	!LO:TX:a:t=|:problem	!	!	!
8r	.	.	8cL	.	8ccL	.	.	.
!LO:TX:t=P:problem:mixed beam	!	!	!LO:TX:b:t=|:problem	!	!LO:TX:a:t=|:problem	!	!	!
8G\L	.	.	8gJ	.	8bJ	.	.	.
8GG/J	.	.	4r	.	4r	.	.	.
!	!	!	!	!	!LO:SIC:custos c:v	!	!	!
8r	.	.	.	.	.	.	.	.
!	!	!	!	!	!LO:LB:g=original	!	!	!
2r	.	.	8r	.	8r	.	.	.
.	.	.	8cL	.	8cL	.	.	.
.	.	.	8d	.	8d	.	.	.
.	.	.	8AJ	.	8dJ	.	.	.
=15	=15	=15	=15	=15	=15	=15	=15	=15
2r	.	.	4B	.	4g	.	1r	.
.	.	.	16r	.	16r	.	.	.
.	.	.	16ggLL	.	16ggLL	.	.	.
.	.	.	16dd	.	16dd	.	.	.
.	.	.	16bJJ	.	16bJJ	.	.	.
8r	.	.	8gL	.	4g	.	.	.
8BBL	X 6	.	8d	.	.	.	.	.
8C	X 6	.	8c	.	8aL	.	.	.
8DJ	X 3	.	8AJ	.	8f#J	.	.	.
=16	=16	=16	=16	=16	=16	=16	=16	=16
4GG	.	.	8BL	.	8gL	.	4r	.
.	.	.	16dL	.	16dL	.	.	.
.	.	.	16BJJ	.	16BJJ	.	.	.
4r	.	.	4G	.	4G	.	8r	.
.	.	.	.	.	.	.	8dd	O!
2r	.	.	8r	.	8r	.	8g/	fe-
!	!	!	!	!	!	!LO:DY:a:t=piano	!	!
.	.	.	8eL	.	8gL	p	8g/	-lix
.	.	.	8d	.	8f#	.	8g/	et
.	.	.	8cJ	.	8eJ	.	8g/	be-
=17	=17	=17	=17	=17	=17	=17	=17	=17
!LO:TX:a:t=3	!	!	!	!	!	!	!	!
0r	.	.	8BL	.	8dL	.	4g/	-a-
.	.	.	8AJ	.	8cJ	.	.	.
.	.	.	4G	.	4B	.	4g/	-te
.	.	.	2r	.	2r	.	8ee	di-
.	.	.	.	.	.	.	16dd	-es
.	.	.	.	.	.	.	16cc	et
.	.	.	.	.	.	.	8ddL	ni-
.	.	.	.	.	.	.	16cc	-mis
.	.	.	.	.	.	.	16cc	de-
!	!	!	!	!	!	!	!LO:SIC:custos b:v	!
!	!	!	!	!	!	!	!LO:LB:g=original	!
=18	=18	=18	=18	=18	=18	=18	=18	=18
.	.	.	2r	.	2r	.	8b	-co-
.	.	.	.	.	.	.	8g	-ra
.	.	.	.	.	.	.	8r	.
.	.	.	.	.	.	.	(>16bLL	quae
.	.	.	.	.	.	.	16ccJJ)	.
.	.	.	8r	.	8r	.	4dd	-no-
.	.	.	8ddL	.	8bbL	.	.	.
.	.	.	8dd	.	8bb	.	4dd	-bis
.	.	.	8bJ	.	8ggJ	.	.	.
!	!	!	!LO:LB:g=original	!	!	!	!	!
=19	=19	=19	=19	=19	=19	=19	=19	=19
1r	.	.	8r	.	8r	.	4dd	Fe-
.	.	.	8ccL	.	8aaL	.	.	.
.	.	.	8cc	.	8aa	.	4dd	-stum
.	.	.	8aJ	.	8ff#J	.	.	.
!	!	!	!LO:TX:t=P:problem:mixed beam	!	!	!	!	!
.	.	.	8b\L	.	4gg	.	8dd	O-
.	.	.	16B/L	.	.	.	8g/	-mni-
.	.	.	16c/JJ	.	.	.	.	.
.	.	.	8dL	.	4r	.	8g/	-um
.	.	.	8BJ	.	.	.	8dd	San-
!	!	!	!	!	!LO:LB:g=original	!	!	!
=20	=20	=20	=20	=20	=20	=20	=20	=20
!	!	!LO:DY:a:t=piano	!	!	!	!	!	!
2r	.	p	8gL	.	8eeL	.	4ee	cto-
.	.	.	8g	.	8ee	.	.	.
.	.	.	8g	.	8dd	.	4dd	-rum
.	.	.	8gJ	.	8ddJ	.	.	.
*2\right	*	*	*	*	*2\right	*	*	*
!	!	!	!	!	!	!	!LO:SIC:custos cc:v	!
!	!	!	!	!	!	!	!LO:LB:g=original	!
!	!	!	!	!	!	!	!LO:TX:a:t=LO&colon;N&colon;vis= 8.	!
8DL	.	.	2a	.	2cc	.	4.cc	Or-
8D	.	.	.	.	.	.	.	.
8D	.	.	.	.	.	.	.	.
8DJ	.	.	.	.	.	.	16a	-di-
.	.	.	.	.	.	.	16a	-nis
=21	=21	=21	=21	=21	=21	=21	=21	=21
2D	6 4	.	8g	.	8b/	.	8b	-No-
.	.	.	8r	.	8r	.	8dd	-stri
.	.	.	4r	.	8g	.	8cc	ce-
.	.	.	.	.	8r	.	8b	-le-
2D	5 3	.	2r	.	2r	.	8a	-bra-
.	.	.	.	.	.	.	8cc	-re
*	*	*	*	*	*	*	*	*ij
.	.	.	.	.	.	.	8b	ce-
.	.	.	.	.	.	.	8a	-le-
=22	=22	=22	=22	=22	=22	=22	=22	=22
4G	.	.	2r	.	4r	.	8b	-bra-
.	.	.	.	.	.	.	8b,	-re
*	*	*	*	*	*	*	*	*Xij
8GL	.	.	.	.	4b	.	8b	ce-
8GJ	.	.	.	.	.	.	8b	-le-
!LO:SIC:custos A:v	!	!	!	!	!	!	!	!
!LO:LB:g=original	!	!	!	!	!	!	!	!
!LO:TX:t=P:problem:mixed beam	!	!	!	!	!	!	!	!
!	!	!	!	!	!	!	!LO:SIC:custos cc:v	!
!	!	!	!	!	!	!	!LO:LB:g=original	!
8A\L	X #	.	2e	.	4cc#X	.	8cc#X,	-bra-
8AA/	.	.	.	.	.	.	16cc#	-re
.	.	.	.	.	.	.	16cc#	et
8AA/	.	.	.	.	16eeLL	.	8cc#	ve-
.	.	.	.	.	16dd	.	.	.
8AA/J	.	.	.	.	16cc#	.	8cc#	-ne-
.	.	.	.	.	16bJJ	.	.	.
=23	=23	=23	=23	=23	=23	=23	=23	=23
8AAL	.	.	8eL	.	4a\	.	16eeLL	-ra-
.	.	.	.	.	.	.	16dd	.
8AA	X 7	.	8g	.	.	.	16cc#X	.
.	.	.	.	.	.	.	16bJJ	.
8AA	.	.	8g	.	8cc#XL	.	8a/L	.
8AAJ	.	.	8gJ	.	8cc#J	.	8g/J	.
4D	.	.	8f#L	.	4dd	.	8f#	.
.	.	.	16f#L	.	.	.	8f#	-re
.	.	.	16eJJ	.	.	.	.	.
4r	.	.	8d	.	4r	.	8r	.
.	.	.	8r	.	.	.	8d	fa-
!	!	!	!LO:LB:g=original	!	!	!	!	!
=24	=24	=24	=24	=24	=24	=24	=24	=24
1r	.	.	8r	.	8r	.	4dd	-vet
.	.	.	16ddLL	.	16ff#LL	.	.	.
.	.	.	16cc#XJJ	.	16eeJJ	.	.	.
.	.	.	4dd	.	4ff#	.	8r	.
*	*	*	*	*	*	*	*	*ij
.	.	.	.	.	.	.	8d	fa-
.	.	.	8r	.	8r	.	4dd	-vet
*	*	*	*	*	*	*	*	*Xij
.	.	.	16dLL	.	16f#LL	.	.	.
.	.	.	16c#XJJ	.	16eJJ	.	.	.
.	.	.	4d	.	4f#	.	8r	.
.	.	.	.	.	.	.	8a	loe-
=25	=25	=25	=25	=25	=25	=25	=25	=25
8r	X 8	.	2r	.	2r	.	8dd	-tiſ-
!LO:TX:t=P:problem:mixed beam	!	!	!	!	!	!	!	!
8D\L	.	.	.	.	.	.	16ff#	-si-
.	.	.	.	.	.	.	16dd	-mã
.	.	.	.	.	.	.	8qqff#/	.
8A\	X #	.	.	.	.	.	4eeT	Vo-
8AA/J	.	.	.	.	.	.	.	.
!	!	!	!	!	!	!	!LO:LB:g=original	!
!	!	!LO:DY:a:t=fortè.	!	!	!	!LO:DY:a:t=fortè.	!	!
4D	.	f	4f#	.	4aa	f	4dd	-ce
4r	.	.	(<16aLL	.	8ddL	.	4r	.
.	.	.	16f#J)	.	.	.	.	.
!	!	!	!LO:TX:b:t=|:problem	!	!	!	!	!
.	.	.	8bJ	.	8eeJ	.	.	.
!	!	!	!	!	!LO:LB:g=original	!	!	!
=26	=26	=26	=26	=26	=26	=26	=26	=26
!	!	!	!LO:TX:b:t=|:problem	!	!LO:TX:a:t=|:problem	!	!LO:TX:a:t=7	!
8AL	X #	.	8eL	.	8cc#XL	.	00r	.
!	!	!	!LO:TX:b:t=|:problem	!	!LO:TX:a:t=|:problem	!	!	!
8DJ	X 8	.	8f#J	.	8ddJ	.	.	.
4r	.	.	4r	.	4r	.	.	.
*	*	*	*2\right	*	*	*	*	*
4D	X 6	.	2b	.	2gg	.	.	.
4r	.	.	.	.	.	.	.	.
=27	=27	=27	=27	=27	=27	=27	=27	=27
4D	X 5	.	2a	.	2ff#	.	.	.
4r	.	.	.	.	.	.	.	.
4AA	X 5	.	2g	.	2ee	.	.	.
4r	.	.	.	.	.	.	.	.
=28	=28	=28	=28	=28	=28	=28	=28	=28
!	!	!	!	!	!LO:TX:t=P:problem:mixed beam	!	!	!
8r	.	.	4f#	.	8dd\L	.	.	.
8DL	.	.	.	.	8d/J	.	.	.
8D	.	.	4a	.	8r	.	.	.
8DJ	.	.	.	.	8ff#	.	.	.
8r	.	.	4b	.	8ggL	.	.	.
8GL	.	.	.	.	8bJ	.	.	.
8G	.	.	4dd	.	8r	.	.	.
8GJ	.	.	.	.	8b	.	.	.
!LO:LB:g=original	!	!	!	!	!	!	!	!
=29	=29	=29	=29	=29	=29	=29	=29	=29
8r	X 7	.	4cc#X	.	8cc#XL	.	.	.
8AAL	X #	.	.	.	8aJ	.	.	.
8AA	X 3	.	8r	.	8r	.	.	.
8AAJ	.	.	8cc#	.	8ee	.	.	.
!	!	!	!LO:SIC:custos dd:v	!	!	!	!	!
!	!	!	!LO:LB:g=original	!	!	!	!	!
!	!	!	!LO:TX:t=P:problem:mixed beam	!	!	!	!	!
4D	.	.	8dd\L	.	4dd	.	.	.
.	.	.	8e/J	.	.	.	.	.
4r	.	.	4r	.	4r	.	.	.
=30	=30	=30	=30	=30	=30	=30	=30	=30
.	X 5	.	.	.	.	.	.	.
8DL	.	.	16aLL	.	16ff#LL	.	0r	.
.	.	.	16a	.	16ff#	.	.	.
8D	.	.	16a	.	16ff#	.	.	.
.	.	.	16aJJ	.	16ff#JJ	.	.	.
8D	.	.	16aLL	.	16ff#LL	.	.	.
.	.	.	16a	.	16ff#	.	.	.
8DJ	.	.	16a	.	16ff#	.	.	.
.	.	.	16aJJ	.	16ff#JJ	.	.	.
4C#X\	X 6	.	16aLL	.	16eeLL	.	.	.
.	.	.	16a	.	16ee	.	.	.
.	.	.	16a	.	16ee	.	.	.
.	.	.	16aJJ	.	16eeJJ	.	.	.
4r	.	.	16aLL	.	16eeLL	.	.	.
.	.	.	16a	.	16ee	.	.	.
.	.	.	16a	.	16ee	.	.	.
.	.	.	16aJJ	.	16eeJJ	.	.	.
!	!	!	!	!	!LO:LB:g=original	!	!	!
=31	=31	=31	=31	=31	=31	=31	=31	=31
8AL	X #	.	4a	.	16eeLL	.	.	.
.	.	.	.	.	16dd	.	.	.
8A	.	.	.	.	16cc#X	.	.	.
.	.	.	.	.	16bJJ	.	.	.
8A	.	.	8r	.	8aL	.	.	.
8AJ	.	.	8g	.	8gJ	.	.	.
4d	.	.	8f#L	.	8f#L	.	.	.
.	.	.	8g	.	8g	.	.	.
4r	.	.	8a	.	8a	.	.	.
.	.	.	8bJ	.	8bJ	.	.	.
=32	=32	=32	=32	=32	=32	=32	=32	=32
4r	.	.	4c#X	.	8c#XL	.	1r	.
.	.	.	.	.	8bJ	.	.	.
.	.	.	.	.	8qqb/	.	.	.
8r	.	.	8r	.	8.aL	.	.	.
8C#X	6 5	.	8e	.	.	.	.	.
.	.	.	.	.	16gJk	.	.	.
!	!	!	!	!	!LO:TX:t=P:problem:mixed beam	!	!	!
4D/	.	.	4f#	.	8f#/L	.	.	.
.	.	.	.	.	8dd\J	.	.	.
.	.	.	.	.	8qqff#/	.	.	.
8GGL	X 6	.	8gL	.	8eeL	.	.	.
8AAJ	X #	.	8eJ	.	16ddL	.	.	.
.	.	.	.	.	16cc#XJJ	.	.	.
!	!	!	!LO:LB:g=original	!	!	!	!	!
=33	=33	=33	=33	=33	=33	=33	=33	=33
!	!	!	!	!	!LO:TX:t=P:problem:mixed beam	!	!	!
4D	.	.	4f#	.	8dd\L	.	2r	.
.	.	.	.	.	8d/J	.	.	.
.	.	.	.	.	8qqf#/	.	.	.
8GL	X 6	.	8gL	.	8eL	.	.	.
8AJ	X #	.	8eJ	.	16dL	.	.	.
.	.	.	.	.	16c#XJJ	.	.	.
4D	.	.	4f#	.	8dL	.	4r	.
.	.	.	.	.	8AJ	.	.	.
.	.	.	.	.	8qqc#/	.	.	.
4r	.	.	4r	.	4d	.	8r	.
.	.	.	.	.	.	.	8a	O!
=34	=34	=34	=34	=34	=34	=34	=34	=34
.	.	.	.	.	.	.	8qqcc#X/	.
1r	.	.	8r	.	8r	.	8dd	fe-
!	!	!	!	!LO:DY:a:t=piano.	!	!LO:DY:a:t=piano.	!	!
.	.	.	8bL	p	8ddL	p	8dd	-lix
.	.	.	8a	.	8cc#X	.	8dd	et
.	.	.	8gJ	.	8bJ	.	8dd	be-
.	.	.	8f#L	.	8aL	.	4ddT	-a-
.	.	.	8e	.	8g	.	.	.
.	.	.	8dJ	.	8f#J	.	8dd	-te
.	.	.	8r	.	8r	.	8r	.
!	!	!	!	!	!LO:LB:g=original	!	!	!
=35	=35	=35	=35	=35	=35	=35	=35	=35
4D	.	.	1r	.	1r	.	2r	.
8r	.	.	.	.	.	.	.	.
16GLL	X 5	.	.	.	.	.	.	.
16GJJ	.	.	.	.	.	.	.	.
!LO:SIC:custos A:v	!	!	!	!	!	!	!	!
!LO:LB:g=original	!	!	!	!	!	!	!	!
8AL	X 3	.	.	.	.	.	4r	.
8GJ	X 3	.	.	.	.	.	.	.
4GG	.	.	.	.	.	.	8r	.
*	*	*	*	*	*	*	*	*ij
.	.	.	.	.	.	.	8dd	O!
=36	=36	=36	=36	=36	=36	=36	=36	=36
!LO:TX:a:t=2	!	!	!	!	!	!	!	!
0r	.	.	8r	.	8r	.	8g/	fe-
.	.	.	8eL	.	8gL	.	8g/	-lix
.	.	.	8d	.	8f#	.	8g/	et
.	.	.	8cJ	.	8eJ	.	8g/	be-
.	.	.	8BL	.	8dL	.	4g/	-a-
.	.	.	8AJ	.	8cJ	.	.	.
.	.	.	4G	.	4B	.	4g/	-te
*	*	*	*	*	*	*	*	*Xij
!	!	!	!	!	!	!	!LO:LB:g=original	!
=37	=37	=37	=37	=37	=37	=37	=37	=37
.	.	.	1r	.	1r	.	8ee	Di-
.	.	.	.	.	.	.	16dd	-es
.	.	.	.	.	.	.	16cc	et
.	.	.	.	.	.	.	8dd	ni-
.	.	.	.	.	.	.	16cc	-mis
.	.	.	.	.	.	.	16cc	de-
.	.	.	.	.	.	.	8b	-co-
.	.	.	.	.	.	.	8g	-ra
.	.	.	.	.	.	.	8r	.
.	.	.	.	.	.	.	8dd	quae
=38	=38	=38	=38	=38	=38	=38	=38	=38
*	*	*	*	*	*	*	*2\right	*
!	!	!LO:DY:a:t=piano	!	!	!	!	!	!
8G	.	p	8r	.	8r	.	2dd	no-
8r	.	.	8bL	.	8ddL	.	.	.
4r	.	.	8b	.	8dd	.	.	.
.	.	.	8bJ	.	8ddJ	.	.	.
8G	.	.	8r	.	8r	.	[>2ddT	.
8r	.	.	8f#L	.	8bL	.	.	.
4r	.	.	8f#	.	8b	.	.	.
.	.	.	8f#J	.	8bJ	.	.	.
=39	=39	=39	=39	=39	=39	=39	=39	=39
1r	.	.	8bL	.	8ddL	.	16dd]LL	.
.	.	.	.	.	.	.	16cc	.
.	.	.	8b	.	8dd	.	16b	.
.	.	.	.	.	.	.	16aJJ	.
.	.	.	8b	.	8dd	.	8g/	.
.	.	.	8bJ	.	8ddJ	.	8fn,	-bis
.	.	.	4b	.	4dd	.	4fT	Feſ-
!	!	!	!LO:TX:b:t=verte	!	!	!	!	!
.	.	.	4cc	.	4cc	.	4e	-tum
!	!	!	!LO:SIC:custos cc:v	!	!	!	!LO:SIC:custos ee:v	!
!	!	!	!LO:PB:g=original	!	!	!	!LO:LB:g=original	!
=40	=40	=40	=40	=40	=40	=40	=40	=40
2r	.	.	4cc	.	4ee	.	8.ee	Om-
.	.	.	.	.	.	.	16dd	-ni-
.	.	.	8r	.	8r	.	(>16ccLL	-um
.	.	.	.	.	.	.	16bJJ)	.
.	.	.	8g	.	8ee	.	(<16a/LL	San-
.	.	.	.	.	.	.	16g/JJ)	.
[>2D	.	.	4f#	.	4dd	.	8f#	-cto-
.	.	.	.	.	.	.	8d	-rum
.	.	.	4r	.	4r	.	8r	.
.	.	.	.	.	.	.	16cc	om-
.	.	.	.	.	.	.	16cc	-ni-
=41	=41	=41	=41	=41	=41	=41	=41	=41
!	!	!	!LO:TX:a:t=3.	!	!LO:TX:a:t=5	!	!	!
2D]	.	.	0r	.	00r	.	4b	-um
.	.	.	.	.	.	.	4g	San-
[>2D	.	.	.	.	.	.	4cc	-cto-
.	.	.	.	.	.	.	4a	-rum
=42	=42	=42	=42	=42	=42	=42	=42	=42
2D]	.	.	.	.	.	.	8.dd	Or-
.	.	.	.	.	.	.	16dd	-di-
.	.	.	.	.	.	.	4g/	-nis
!	!	!	!	!	!	!	!LO:SIC:custos g:v	!
!	!	!	!	!	!	!	!LO:LB:g=original	!
4G	.	.	.	.	.	.	8g	No-
.	.	.	.	.	.	.	8b	-stri
4r	.	.	.	.	.	.	8cc	Ce-
.	.	.	.	.	.	.	8b	-le-
=43	=43	=43	=43	=43	=43	=43	=43	=43
2r	.	.	1r	.	.	.	8a	-bra-
.	.	.	.	.	.	.	8g,	-re
*	*	*	*	*	*	*	*	*ij
.	.	.	.	.	.	.	8ee	Ce-
!	!	!	!	!	!	!	!LO:TX:b:t=Verte	!
.	.	.	.	.	.	.	8dd	-le-
8r	.	.	.	.	.	.	8cc	-bra-
16GLL	.	.	.	.	.	.	8b	-re
16F#JJ	.	.	.	.	.	.	.	.
8GL	.	.	.	.	.	.	8r	.
.	X 5	.	.	.	.	.	.	.
8EJ	.	.	.	.	.	.	16b	Ce-
.	.	.	.	.	.	.	16b	-le-
=44	=44	=44	=44	=44	=44	=44	=44	=44
!	!	!	!	!LO:DY:a:t=piano	!	!	!	!
.	X 6	.	.	.	.	.	.	.
8D#X\L	.	.	2r	p	.	.	8b	-bra-
8C#X\	.	.	.	.	.	.	8b,	-re
*	*	*	*	*	*	*	*	*Xij
8D#X\	.	.	.	.	.	.	4b	et
8BB\J	.	.	.	.	.	.	.	.
2r	.	.	8gL	.	.	.	4b	ve-
.	.	.	8a	.	.	.	.	.
.	.	.	8b	.	.	.	4b	-ne-
.	.	.	8gJ	.	.	.	.	.
!LO:LB:g=original	!	!	!	!	!	!	!	!
=45	=45	=45	=45	=45	=45	=45	=45	=45
!	!	!	!	!	!LO:TX:b:t=Verte.	!	!	!
8D#X\L	X 6	.	8f#L	.	1r	.	4b	-ra-
8C#X\	.	.	8e	.	.	.	.	.
8D#X\	.	.	8f#	.	.	.	4b	-ri
8BB\J	.	.	8d#XJ	.	.	.	.	.
!	!	!	!	!	!	!	!LO:SIC:custos b:v	!
!	!	!	!	!	!	!	!LO:LB:g=original	!
2r	.	.	8gL	.	.	.	8b	fa-
.	.	.	8a	.	.	.	8b	-vet
.	.	.	8b	.	.	.	4r	.
.	.	.	8gJ	.	.	.	.	.
!	!	!	!	!	!LO:PB:g=original	!	!	!
=46	=46	=46	=46	=46	=46	=46	=46	=46
8r	.	.	8r	.	8r	.	4.ee	fa-
8EL	.	.	8b/L	.	8eeL	.	.	.
8EJ	.	.	8b/J	.	8eeJ	.	.	.
8r	.	.	8r	.	8r	.	8b	.
.	.	.	.	.	.	.	8qqdd#X/	.
8r	.	.	8r	.	8r	.	4ee	-vet
8EL	.	.	8gL	.	8bL	.	.	.
8EJ	.	.	8gJ	.	8bJ	.	4r	.
8r	.	.	8r	.	8r	.	.	.
=47	=47	=47	=47	=47	=47	=47	=47	=47
2r	.	.	1r	.	1r	.	8r	.
.	.	.	.	.	.	.	8cc	loe-
.	.	.	.	.	.	.	8b	-tiſ-
.	.	.	.	.	.	.	16a	-si-
.	.	.	.	.	.	.	16a	-mã
16ELL	X 8	.	.	.	.	.	(<4g/	vo-
16F#	.	.	.	.	.	.	.	.
16G	.	.	.	.	.	.	.	.
16EJJ	.	.	.	.	.	.	.	.
8AL	X 6	.	.	.	.	.	4f#t)	.
8BJ	.	.	.	.	.	.	.	.
=48	=48	=48	=48	=48	=48	=48	=48	=48
!	!	!	!	!	!	!LO:DY:rj	!	!
!	!	!LO:DY:a:t=forte	!	!LO:DY:a:t=forte	!	!LO:DY:a:t=forte	!	!
4E	.	f	4g	f	4bb	f	4e	-ce.
8GL	.	.	(<16bLL	.	8eeL	.	4r	.
.	.	.	16gJ)	.	.	.	.	.
!	!	!	!LO:TX:b:t=|:problem	!	!	!	!	!
8AJ	.	.	8ccJ	.	8ff#J	.	.	.
!	!	!	!LO:SIC:custos f:v	!	!	!	!	!
!	!	!	!LO:PB:g=original	!	!	!	!	!
!	!	!	!LO:TX:b:t=|:problem	!	!LO:TX:a:t=|:problem	!	!	!
8BL	X 7#	.	8f#L	.	8dd#XL	.	2r	.
!	!	!	!LO:TX:b:t=|:problem	!	!LO:TX:a:t=|:problem	!	!	!
16EL	.	.	8gJ	.	8eeJ	.	.	.
16F#JJ	X 8	.	.	.	.	.	.	.
8GL	.	.	8r	.	4r	.	.	.
8EJ	.	.	8g	.	.	.	.	.
=49	=49	=49	=49	=49	=49	=49	=49	=49
!	!	!	!	!	!	!	!LO:TX:a:t=5	!
2A	.	.	4a\	.	2r	.	00r	.
.	.	.	4cc	.	.	.	.	.
4B	X 7#	.	4b	.	16r	.	.	.
.	.	.	.	.	16ff#LL	.	.	.
.	.	.	.	.	16ff#	.	.	.
.	.	.	.	.	16ff#JJ	.	.	.
4r	.	.	16r	.	16bLL	.	.	.
.	.	.	16dd#XLL	.	16ff#	.	.	.
.	.	.	16dd#	.	16ff#	.	.	.
.	.	.	16dd#JJ	.	16ff#JJ	.	.	.
=50	=50	=50	=50	=50	=50	=50	=50	=50
4E	.	.	4ee	.	16r	.	.	.
.	.	.	.	.	16ggLL	.	.	.
.	.	.	.	.	16gg	.	.	.
.	.	.	.	.	16ggJJ	.	.	.
4E	.	.	16r	.	16bLL	.	.	.
.	.	.	16eeLL	.	16gg	.	.	.
.	.	.	16ee	.	16gg	.	.	.
.	.	.	16eeJJ	.	16ggJJ	.	.	.
4B	X 7#	.	16dd#XLL	.	4ff#	.	.	.
.	.	.	16b	.	.	.	.	.
.	.	.	16cc#X	.	.	.	.	.
.	.	.	16dd#XJJ	.	.	.	.	.
4r	.	.	16eeLL	.	4r	.	.	.
.	.	.	16ff#	.	.	.	.	.
.	.	.	16gg	.	.	.	.	.
.	.	.	16aaJJ	.	.	.	.	.
!LO:LB:g=original	!	!	!	!	!LO:LB:g=original	!	!	!
=51	=51	=51	=51	=51	=51	=51	=51	=51
1r	.	.	4bb	.	16r	.	.	.
.	.	.	.	.	16eeLL	.	.	.
.	.	.	.	.	16dd	.	.	.
.	.	.	.	.	16ccJJ	.	.	.
.	.	.	4r	.	16bLL	.	.	.
.	.	.	.	.	16a	.	.	.
.	.	.	.	.	16g	.	.	.
.	.	.	.	.	16f#JJ	.	.	.
.	.	.	2r	.	4e	.	.	.
.	.	.	.	.	4r	.	.	.
=52	=52	=52	=52	=52	=52	=52	=52	=52
16r	.	.	2r	.	2r	.	.	.
16ALL	.	.	.	.	.	.	.	.
16A	.	.	.	.	.	.	.	.
16GJJ	.	.	.	.	.	.	.	.
16F#LL	.	.	.	.	.	.	.	.
16E	.	.	.	.	.	.	.	.
16D#X	.	.	.	.	.	.	.	.
16C#XJJ	.	.	.	.	.	.	.	.
8BB	.	.	8r	.	8r	.	.	.
4B	X 7#	.	4dd#X	.	4ff#	.	.	.
8B	.	.	8dd#	.	8ff#	.	.	.
!	!	!	!LO:LB:g=original	!	!	!	!	!
=53	=53	=53	=53	=53	=53	=53	=53	=53
!	!	!	!	!	!	!	!LO:TX:b:t=verte	!
4E	.	.	4ee	.	8ggL	.	1r	.
.	.	.	.	.	16ff#L	.	.	.
.	.	.	.	.	16eeJJ	.	.	.
!LO:TX:t=P:problem:mixed beam	!	!	!	!	!	!	!	!
8B\L	X 7#	.	4ff#t	.	4dd#Xt	.	.	.
8BB/J	.	.	.	.	.	.	.	.
2r	.	.	8r	.	8r	.	.	.
.	.	.	8ccL	.	8ccL	.	.	.
.	.	.	8b	.	8b	.	.	.
.	.	.	8aJ	.	8aJ	.	.	.
!	!	!	!	!	!	!	!LO:PB:g=original	!
=54	=54	=54	=54	=54	=54	=54	=54	=54
8r	.	.	8g\L	.	8g\L	.	2r	.
!LO:TX:a:t=|:problem	!	!	!LO:TX:a:t=|:problem	!	!LO:TX:a:t=|:problem	!	!	!
8cL	.	.	8dd\	.	8cc\	.	.	.
!LO:TX:a:t=|:problem	!	!	!LO:TX:a:t=|:problem	!	!LO:TX:a:t=|:problem	!	!	!
8A	.	.	8a\	.	8a\	.	.	.
!LO:TX:a:t=|:problem	!	!	!LO:TX:a:t=|:problem	!	!LO:TX:a:t=|:problem	!	!	!
8BJ	.	.	8b\J	.	8b\J	.	.	.
4E	.	.	4ee 4b 4e	.	4ee 4b 4e	.	4r	.
4r	.	.	4r	.	4r	.	8r	.
.	.	.	.	.	.	.	8dd	O!
=55	=55	=55	=55	=55	=55	=55	=55	=55
1r	.	.	1r	.	1r	.	8g/	fe-
.	.	.	.	.	.	.	8g/	-lix
.	.	.	.	.	.	.	8g/	et
.	.	.	.	.	.	.	8g/	be-
.	.	.	.	.	.	.	4g/	-a-
.	.	.	.	.	.	.	4g/	-te
!	!	!	!	!	!LO:LB:g=original	!	!	!
=56	=56	=56	=56	=56	=56	=56	=56	=56
!	!	!LO:DY:a:t=piano	!	!LO:DY:a:t=fortè	!	!	!	!
4C	.	p	2r	f	2r	.	8ee	di-
.	.	.	.	.	.	.	16dd,	-es,
.	.	.	.	.	.	.	16cc	et
8DL	.	.	.	.	.	.	8dd	ni-
8F#J	.	.	.	.	.	.	16cc	-mis
.	.	.	.	.	.	.	16cc	de-
4G	.	.	16r	.	16r	.	8b	-co-
!	!	!	!	!	!	!LO:DY:a:t=fort.	!	!
.	.	.	16gLL	.	16gLL	f	.	.
.	.	.	16d	.	16d	.	8g	-ra
.	.	.	16BJJ	.	16BJJ	.	.	.
4r	.	.	8G	.	8GL	.	8r	.
!	!	!	!	!	!	!LO:DY:a:t=piano	!	!
.	.	.	8r	.	8gJ	p	8b	quae
=57	=57	=57	=57	=57	=57	=57	=57	=57
!LO:TX:a:t=2	!	!	!	!	!	!	!	!
0r	.	.	1r	.	(<8gL	.	(>8bL	no-
.	.	.	.	.	8f#J)	.	8aJ)	.
.	.	.	.	.	4f#	.	4a	-bis
!	!	!	!	!	!	!	!LO:SIC:custos cc:v	!
!	!	!	!	!	!	!	!LO:LB:g=original	!
.	.	.	.	.	(<8aL	.	(>8ccL	fe-
.	.	.	.	.	8gJ)	.	8bJ)	.
.	.	.	.	.	4g	.	4b	-stum
=58	=58	=58	=58	=58	=58	=58	=58	=58
!LO:TX:b:t=verte	!	!	!	!	!	!	!	!
.	.	.	2r	.	2r	.	8.dd	Om-
!	!	!	!	!LO:DY:a:t=piano.	!	!	!	!
.	.	.	.	p	.	.	16dd	-ni-
.	.	.	.	.	.	.	8dd	-um
.	.	.	.	.	.	.	8dd	San-
.	.	.	4r	.	4r	.	8dd	-cto-
.	.	.	.	.	.	.	8dd	-rum
.	.	.	8dL	.	8f#L	.	8d	Or-
.	.	.	8dJ	.	8f#J	.	16cc	-di-
.	.	.	.	.	.	.	16cc	-nis
!LO:PB:g=original	!	!	!	!	!	!	!	!
=59	=59	=59	=59	=59	=59	=59	=59	=59
2r	.	.	8dL	.	8f#L	.	8cc	-nos-
.	.	.	8dJ	.	8gJ	.	8b,	-tri
.	.	.	4r	.	4r	.	8dd	Ce-
.	.	.	.	.	.	.	8dd	-le-
!	!	!	!	!	!	!	!LO:SIC:custos ee:v	!
!	!	!	!	!	!	!	!LO:LB:g=original	!
8CL	.	.	2r	.	2r	.	8ee	-bra-
8BB	.	.	.	.	.	.	16dd,	-re
.	.	.	.	.	.	.	16dd	et
8AA	.	.	.	.	.	.	8cc	ve-
8GGJ	.	.	.	.	.	.	8b	-ne-
=60	=60	=60	=60	=60	=60	=60	=60	=60
!	!	!	!	!	!LO:TX:a:t=3.	!	!	!
4D	.	.	1r	.	0r	.	8a\	-ra-
.	.	.	.	.	.	.	8d/	-ri,
8r	.	.	.	.	.	.	8r	.
8D	.	.	.	.	.	.	16a	ce-
.	.	.	.	.	.	.	16a	-le-
!LO:TX:t=P:problem:mixed beam	!	!	!	!	!	!	!	!
8G\L	.	.	.	.	.	.	8b	-bra-
8GG/J	.	.	.	.	.	.	8b	-re,
4r	.	.	.	.	.	.	8r	.
.	.	.	.	.	.	.	16dd	ce-
.	.	.	.	.	.	.	16dd	-le-
!	!	!	!LO:LB:g=original	!	!	!	!	!
=61	=61	=61	=61	=61	=61	=61	=61	=61
!LO:TX:a:t=2	!	!	!	!	!	!	!	!
0r	.	.	8dL	.	.	.	2dd	-bra-
.	.	.	8e	.	.	.	.	.
.	.	.	8f#	.	.	.	.	.
.	.	.	8gJ	.	.	.	.	.
.	.	.	8aL	.	.	.	2dd	.
.	.	.	8g	.	.	.	.	.
.	.	.	8f#	.	.	.	.	.
.	.	.	8eJ	.	.	.	.	.
=62	=62	=62	=62	=62	=62	=62	=62	=62
.	.	.	8dL	.	1r	.	2ddT	.
.	.	.	8e	.	.	.	.	.
.	.	.	8f#	.	.	.	.	.
.	.	.	8gJ	.	.	.	.	.
.	.	.	8aL	.	.	.	4dd,	-re
.	.	.	8gJ	.	.	.	.	.
.	.	.	4r	.	.	.	8gg	fa-
.	.	.	.	.	.	.	8dd	-vet
!	!	!	!	!	!	!	!LO:LB:g=original	!
=63	=63	=63	=63	=63	=63	=63	=63	=63
8r	.	.	4r	.	4r	.	8b	fa-
!LO:TX:a:t=|:problem	!	!	!	!	!	!	!	!
8G\L	.	.	.	.	.	.	8g/,	-vet
*	*	*	*	*	*	*	*	*ij
!LO:TX:a:t=|:problem	!	!	!LO:TX:a:t=|:problem	!	!LO:TX:a:t=|:problem	!	!	!
8D\J	.	.	8ggL	.	8ggL	.	8gg	fa-
!LO:TX:b:t=|:problem	!	!	!LO:TX:a:t=|:problem	!	!LO:TX:a:t=|:problem	!	!	!
8BB/L	.	.	8ddJ	.	8ddJ	.	8dd	-vet
!LO:TX:b:t=|:problem	!	!	!LO:TX:b:t=|:problem	!	!LO:TX:b:t=|:problem	!	!	!
8GG/J	.	.	8bL	.	8bL	.	8b	fa-
!	!	!	!LO:TX:b:t=|:problem	!	!LO:TX:b:t=|:problem	!	!	!
8r	.	.	8gJ	.	8gJ	.	8g	-vet
*	*	*	*	*	*	*	*	*Xij
4r	.	.	4r	.	4r	.	8r	.
.	.	.	.	.	.	.	8cc	loe-
!	!	!	!	!	!LO:LB:g=original	!	!	!
=64	=64	=64	=64	=64	=64	=64	=64	=64
4G	.	.	1r	.	1r	.	8b	-tiſ-
.	.	.	.	.	.	.	16a	-si-
.	.	.	.	.	.	.	16g	-mã
.	.	.	.	.	.	.	8qqb/	.
8dL	.	.	.	.	.	.	4aT	vo-
8DJ	.	.	.	.	.	.	.	.
4G	.	.	.	.	.	.	4g	-ce
!	!	!	!	!	!	!LO:DY:a:t=fortè	!	!
4r	.	.	.	.	.	f	4r	.
=65	=65	=65	=65	=65	=65	=65	=65	=65
!	!	!LO:DY:a:t=forte	!	!	!	!	!LO:TX:a:t=9	!
4D	.	f	2r	.	2r	.	00r	.
8r	.	.	.	.	.	.	.	.
8D	.	.	.	.	.	.	.	.
!LO:SIC:custos G:v	!	!	!	!	!	!	!	!
!LO:LB:g=original	!	!	!	!	!	!	!	!
!LO:TX:t=P:problem:mixed beam	!	!	!	!	!	!	!	!
8G\L	.	.	4r	.	16r	.	.	.
!	!	!	!	!LO:DY:a:t=forte	!	!	!	!
.	.	.	.	f	16gLL	.	.	.
8GG/J	.	.	.	.	16g	.	.	.
.	.	.	.	.	16gJJ	.	.	.
8r	.	.	8r	.	16gLL	.	.	.
.	.	.	.	.	16a	.	.	.
8GG	.	.	8d	.	16b	.	.	.
.	.	.	.	.	16gJJ	.	.	.
=66	=66	=66	=66	=66	=66	=66	=66	=66
4D	.	.	4d	.	16aLL	.	.	.
.	.	.	.	.	16g	.	.	.
.	.	.	.	.	16f#	.	.	.
.	.	.	.	.	16eJJ	.	.	.
!	!	!	!	!	!LO:TX:t=P:problem:mixed beam	!	!	!
8r	.	.	8r	.	8d/L	.	.	.
8D	.	.	8a	.	8cc\J	.	.	.
4G	.	.	4g	.	8bL	.	.	.
.	.	.	.	.	16ggL	.	.	.
.	.	.	.	.	16ff#JJ	.	.	.
8r	.	.	8r	.	8ggL	.	.	.
8G	.	.	8g	.	8ddJ	.	.	.
=67	=67	=67	=67	=67	=67	=67	=67	=67
4C	.	.	2g	.	2ee	.	.	.
4r	.	.	.	.	.	.	.	.
2C	5 3	.	4e	.	16cLL	.	.	.
.	.	.	.	.	16e	.	.	.
.	.	.	.	.	16g	.	.	.
.	.	.	.	.	16ccJJ	.	.	.
.	.	.	4r	.	8eeL	.	.	.
.	.	.	.	.	8ccJ	.	.	.
=68	=68	=68	=68	=68	=68	=68	=68	=68
4BB	.	.	2g	.	2dd	.	.	.
4r	.	.	.	.	.	.	.	.
!	!	!	!LO:SIC:custos g:v	!	!	!	!	!
!	!	!	!LO:LB:g=original	!	!	!	!	!
2BB	6 3	.	4g	.	16BLL	.	.	.
.	.	.	.	.	16d	.	.	.
.	.	.	.	.	16g	.	.	.
.	.	.	.	.	16bJJ	.	.	.
.	.	.	4r	.	8ddL	.	.	.
.	.	.	.	.	8bJ	.	.	.
=69	=69	=69	=69	=69	=69	=69	=69	=69
4AA	X 7	.	8r	.	8cc	.	00r	.
.	X 6	.	4cc	.	4aa	.	.	.
8r	.	.	.	.	.	.	.	.
8D	.	.	8cc	.	8aa	.	.	.
!	!	!	!	!	!LO:LB:g=original	!	!	!
4D	.	.	8b	.	8gg	.	.	.
.	.	.	4dd	.	4bb	.	.	.
8r	.	.	.	.	.	.	.	.
8D	.	.	8dd	.	8bb	.	.	.
!LO:LB:g=original	!	!	!	!	!	!	!	!
=70	=70	=70	=70	=70	=70	=70	=70	=70
8D	.	.	8r	.	8d	.	.	.
8r	.	.	4a	.	4cc	.	.	.
4r	.	.	.	.	.	.	.	.
.	.	.	8a	.	8cc	.	.	.
2r	.	.	8g	.	8b	.	.	.
.	.	.	4b	.	4dd	.	.	.
.	.	.	8b	.	8dd	.	.	.
=71	=71	=71	=71	=71	=71	=71	=71	=71
4r	.	.	4b	.	2gg	.	.	.
8AL	X 7#	.	4cc#X	.	.	.	.	.
8AJ	.	.	.	.	.	.	.	.
!	!	!	!	!	!LO:N:vis=16	!	!	!
4D	.	.	8ddL	.	8ff#L	.	.	.
.	.	.	16ff#L	.	16aaL	.	.	.
.	.	.	16eeJJ	.	16gg	.	.	.
4r	.	.	16ddLL	.	16ff#	.	.	.
.	.	.	16ccn	.	16ee	.	.	.
.	.	.	16b	.	16dd	.	.	.
.	.	.	16aJJ	.	16ccJJ	.	.	.
=72	=72	=72	=72	=72	=72	=72	=72	=72
4r	.	.	4g	.	8bL	.	.	.
.	.	.	.	.	8.ddJ	.	.	.
16r	.	.	16r	.	.	.	.	.
!LO:TX:a:t=|:problem	!	!	!	!	!	!	!	!
16DLL	.	.	16dLL	.	16dLL	.	.	.
!LO:TX:a:t=|:problem	!	!	!	!	!	!	!	!
16E	.	.	16e	.	16e	.	.	.
!LO:TX:a:t=|:problem	!	!	!	!	!	!	!	!
16F#JJ	.	.	16f#JJ	.	16f#JJ	.	.	.
!LO:TX:t=P:problem:mixed beam	!	!	!	!	!	!	!	!
8G\L	.	.	8gL	.	8gL	.	.	.
!LO:TX:b:t=|:problem	!	!	!LO:TX:b:t=|:problem	!	!LO:TX:b:t=|:problem	!	!	!
8BB/	X 6	.	8B	.	8B	.	.	.
!LO:TX:b:t=|:problem	!	!	!LO:TX:b:t=|:problem	!	!LO:TX:b:t=|:problem	!	!	!
8C/	X 6	.	8c	.	8c	.	.	.
!LO:TX:b:t=|:problem	!	!	!LO:TX:b:t=|:problem	!	!LO:TX:b:t=|:problem	!	!	!
8D/J	X 9	.	8dJ	.	8dJ	.	.	.
=73	=73	=73	=73	=73	=73	=73	=73	=73
!LO:TX:t=P:problem:mixed beam	!	!	!	!	!	!	!	!
8E\L	.	.	8eL	.	8eL	.	1r	.
8BB/	.	.	8g	.	8g	.	.	.
8C/	.	.	8a	.	8a	.	.	.
8D/J	.	.	8f#J	.	8f#J	.	.	.
4GG	.	.	8gL	.	8gL	.	.	.
.	.	.	8GJ	.	8GJ	.	.	.
!LO:TX:a:t=P:problem:w źródle dwie fermaty - nad i pod pauzą; w Humdrumie wpisane dwie, ale wyświetla się tylko jedna	!	!	!	!	!	!	!	!
4r;;	.	.	4r	.	4r	.	.	.
!	!	!	!LO:LB:g=original	!	!LO:LB:g=original	!	!LO:LB:g=original	!
=74||	=74||	=74||	=74||	=74||	=74||	=74||	=74||	=74||
*M3/4	*	*	*M3/4	*	*M3/4	*	*M3/4	*
!LO:TX:a:t=adagio	!	!	!LO:TX:a:t=7.	!	!LO:TX:a:t=7.	!	!LO:TX:a:t=adagio.	!
!	!	!	!LO:TX:a:t=andantè.	!	!LO:TX:a:t=andantè.	!	!	!
!	!	!	!LO:N:vis=00	!	!LO:N:vis=00	!	!LO:N:vis=00	!
4E	.	.	0.r	.	0.r	.	0.r	.
4r	.	.	.	.	.	.	.	.
4r	.	.	.	.	.	.	.	.
!LO:LB:g=original	!	!	!	!	!	!	!	!
=75	=75	=75	=75	=75	=75	=75	=75	=75
2.r	.	.	.	.	.	.	.	.
=76	=76	=76	=76	=76	=76	=76	=76	=76
4G	X 3	.	.	.	.	.	.	.
2A	X 3	.	.	.	.	.	.	.
.	X 5	.	.	.	.	.	.	.
=77	=77	=77	=77	=77	=77	=77	=77	=77
2B	6 4	.	.	.	.	.	.	.
4r	5 #	.	.	.	.	.	.	.
=78	=78	=78	=78	=78	=78	=78	=78	=78
!	!	!	!	!	!	!	!LO:TX:a:t=P:problem:w źródle w tym miejscu błędnie pauza 4-taktowa	!
!	!	!	!LO:N:vis=0	!	!LO:N:vis=0	!	!LO:N:vis=0	!
4r	.	.	1.r	.	1.r	.	1.r	.
.	X 5	.	.	.	.	.	.	.
2D#X	X 7	.	.	.	.	.	.	.
=79	=79	=79	=79	=79	=79	=79	=79	=79
4F#	.	.	.	.	.	.	.	.
4G	.	.	.	.	.	.	.	.
4F#	.	.	.	.	.	.	.	.
=80	=80	=80	=80	=80	=80	=80	=80	=80
4E	.	.	2.r	.	2.r	.	2.ryy	.
4B	.	.	.	.	.	.	.	.
4BB	.	.	.	.	.	.	.	.
=81	=81	=81	=81	=81	=81	=81	=81	=81
!	!	!	!	!LO:DY:a:t=piano.	!	!LO:DY:a:t=piano	!	!
4E	.	.	8gL	p	8bL	p	2b	-Vir-
.	.	.	8g	.	8b	.	.	.
4r	.	.	8g	.	8b	.	.	.
.	.	.	8g	.	8b	.	.	.
4r	.	.	8g	.	8b	.	4b	-gi-
.	.	.	8gJ	.	8bJ	.	.	.
=82	=82	=82	=82	=82	=82	=82	=82	=82
!LO:TX:a:t=14	!	!	!	!	!	!	!	!
!LO:N:vis=00	!	!	!	!	!	!	!	!
0.r	.	.	8gL	.	8bL	.	2b	-num
.	.	.	8g	.	8b	.	.	.
.	.	.	8g	.	8b	.	.	.
.	.	.	8g	.	8b	.	.	.
.	.	.	8g	.	8b	.	4b	Re
.	.	.	8gJ	.	8bJ	.	.	.
=83	=83	=83	=83	=83	=83	=83	=83	=83
.	.	.	8f#L	.	8bL	.	4a	gi-
.	.	.	8f#	.	8b	.	.	.
.	.	.	8f#	.	8b	.	4a	-na
.	.	.	8f#	.	8b	.	.	.
.	.	.	8f#	.	8b	.	8gL	Ma-
.	.	.	8f#J	.	8bJ	.	8f#J	.
=84	=84	=84	=84	=84	=84	=84	=84	=84
.	.	.	8f#L	.	8bL	.	4g/	-ri-
.	.	.	8f#	.	8b	.	.	.
.	.	.	8f#	.	8b	.	4r	.
.	.	.	8f#	.	8b	.	.	.
.	.	.	8f#	.	8b	.	4e	-a,
.	.	.	8f#J	.	8bJ	.	.	.
=85	=85	=85	=85	=85	=85	=85	=85	=85
.	.	.	8gL	.	8bL	.	2.b	O-
.	.	.	8g	.	8b	.	.	.
.	.	.	8g	.	8b	.	.	.
.	.	.	8g	.	8b	.	.	.
.	.	.	8g	.	8b	.	.	.
.	.	.	8gJ	.	8bJ	.	.	.
!	!	!	!	!	!LO:LB:g=original	!	!	!
=86	=86	=86	=86	=86	=86	=86	=86	=86
!LO:N:vis=00	!	!	!	!	!	!	!	!
0.r	.	.	8g#XL	.	8bL	.	2.b	-ra
.	.	.	8g#	.	8b	.	.	.
.	.	.	8g#	.	8b	.	.	.
.	.	.	8g#	.	8b	.	.	.
.	.	.	8g#	.	8b	.	.	.
.	.	.	8g#J	.	8bJ	.	.	.
!	!	!	!LO:LB:g=original	!	!	!	!	!
!	!	!	!	!	!	!	!LO:LB:g=original	!
=87	=87	=87	=87	=87	=87	=87	=87	=87
.	.	.	8g#XL	.	8bL	.	2.b	pro
.	.	.	8g#	.	8b	.	.	.
.	.	.	8g#	.	8b	.	.	.
.	.	.	8g#	.	8b	.	.	.
.	.	.	8g#	.	8b	.	.	.
.	.	.	8g#J	.	8bJ	.	.	.
=88	=88	=88	=88	=88	=88	=88	=88	=88
.	.	.	8b/L	.	8ddL	.	2cc	no-
.	.	.	8b/	.	8dd	.	.	.
.	.	.	8b/	.	8dd	.	.	.
.	.	.	8b/	.	8dd	.	.	.
.	.	.	8b/	.	8dd	.	4cc	-bis,
.	.	.	8b/J	.	8ddJ	.	.	.
=89	=89	=89	=89	=89	=89	=89	=89	=89
.	.	.	8aL	.	8ccL	.	2.a	cum
.	.	.	8a	.	8cc	.	.	.
.	.	.	8a	.	8cc	.	.	.
.	.	.	8a	.	8cc	.	.	.
.	.	.	8a	.	8cc	.	.	.
.	.	.	8aJ	.	8ccJ	.	.	.
=90	=90	=90	=90	=90	=90	=90	=90	=90
!LO:N:vis=00	!	!	!	!	!	!	!	!
0.r	.	.	8aL	.	8ccL	.	2b	San-
.	.	.	8a	.	8cc	.	.	.
.	.	.	8a	.	8cc	.	.	.
.	.	.	8a	.	8cc	.	.	.
.	.	.	8a	.	8cc	.	4ee	-cto
.	.	.	8aJ	.	8ccJ	.	.	.
=91	=91	=91	=91	=91	=91	=91	=91	=91
.	.	.	8gL	.	8bL	.	4ff#	Pat-
.	.	.	8g	.	8b	.	.	.
.	.	.	8g	.	8b	.	4cc	-re
.	.	.	8g	.	8b-X	.	.	.
.	.	.	8g	.	8b-	.	8a/	Be-
.	.	.	8gJ	.	8b-J	.	8a/	-ne-
=92	=92	=92	=92	=92	=92	=92	=92	=92
.	.	.	8f#L	.	8aL	.	8g/	-di-
.	.	.	8a	.	8ff#	.	8b	-cto,
.	.	.	8a	.	8ff#	.	8ee	o-
.	.	.	8a	.	8ff#	.	8dd#X	-mni-
!	!	!	!	!	!	!	!LO:SIC:custos ee:v	!
!	!	!	!	!	!	!	!LO:LB:g=original	!
.	.	.	8a	.	8ff#	.	8ee	-bus-
.	.	.	8aJ	.	8ff#J	.	8b	-que
!	!	!	!	!	!LO:LB:g=original	!	!	!
=93	=93	=93	=93	=93	=93	=93	=93	=93
.	.	.	4g	.	4gg	.	8r	.
.	.	.	.	.	.	.	8b	San-
.	.	.	4r	.	4r	.	(>8ff#L	.
.	.	.	.	.	.	.	8eeJ)	.
.	.	.	8eL	.	8gL	.	8ff#L	.
.	.	.	8eJ	.	8gJ	.	8bJ	-ctiſ
!	!	!	!LO:LB:g=original	!	!	!	!	!
=94	=94	=94	=94	=94	=94	=94	=94	=94
!LO:N:vis=0	!	!	!	!	!	!	!	!
1.r	.	.	4d#X	.	4f#	.	8r	.
.	.	.	.	.	.	.	8b	Or-
.	.	.	4r	.	4r	.	(>8ggL	.
.	.	.	.	.	.	.	8ff#J)	.
.	.	.	8d#L	.	8f#L	.	8ff#	-di-
.	.	.	8d#J	.	8f#J	.	8ee	-niſ
=95	=95	=95	=95	=95	=95	=95	=95	=95
.	.	.	4e	.	4g	.	2.r	.
.	.	.	4r	.	4r	.	.	.
.	.	.	4r	.	4r	.	.	.
!LO:LB:g=original	!	!	!	!	!	!	!	!
=96	=96	=96	=96	=96	=96	=96	=96	=96
!LO:TX:a:t=|:problem	!	!	!	!	!	!	!	!
8eL	.	.	8eeL	.	8eeL	.	4a#X	No-
!LO:TX:a:t=|:problem	!	!	!	!	!	!	!	!
8d	.	.	8dd	.	8dd	.	.	.
!LO:TX:a:t=|:problem	!	!	!	!	!	!	!	!
8c#X	.	.	8cc#X	.	8cc#X	.	4cc#X	.
!LO:TX:a:t=|:problem	!	!	!	!	!	!	!	!
8B	.	.	8b	.	8b	.	.	.
!LO:TX:a:t=|:problem	!	!	!	!	!	!	!	!
8A#X	.	.	8a#X	.	8a#X	.	4ee	.
!LO:TX:a:t=|:problem	!	!	!	!	!	!	!	!
8G#XJ	.	.	8g#XJ	.	8g#XJ	.	.	.
=97	=97	=97	=97	=97	=97	=97	=97	=97
2.F#	.	.	2.f#	.	2.f#	.	2.dd	.
=98	=98	=98	=98	=98	=98	=98	=98	=98
[<2.F#	.	.	[<2.f#	.	[<2.f#	.	2.cc#X;	.
=99;	=99;	=99	=99;	=99	=99;	=99	=99	=99
!	!	!	!	!	!	!	!LO:TX:a:t=P:problem:w źródle brak tego taktu	!
2.F#]	.	.	2.f#]	.	2.f#]	.	2.ryy	.
=100	=100	=100	=100	=100	=100	=100	=100	=100
!LO:TX:b:i:t=Da capo usq(ue) ad Signu(m) Finiſ.	!	!	!	!	!LO:TX:b:i:t=Da capo.	!	!LO:TX:b:i:t=Da capo.	!
2.BB	.	.	2.B	.	2.B	.	2.b	-stri.
!	!	!	!LO:TX:a:i:t=Da capo.	!	!	!	!	!
==	==	==	==	==	==	==	==	==
*-	*-	*-	*-	*-	*-	*-	*-	*-
!!!system-decoration: s1[g1]s4
!!!RDF**kern: > = above
!!!RDF**kern: < = below
!!!EED: Antoni Szymański
!!!EST: 2020-11-20
!!!ENC: Tomasz Grochalski
!!!END: 2020-04-21
